src/components/icons/mail.svg

<?xml version="1.0" encoding="UTF-8"?>
<svg width="25px" height="18px" viewBox="0 0 25 18" version="1.1" xmlns="http://www.w3.org/2000/svg" xmlns:xlink="http://www.w3.org/1999/xlink">
    <!-- Generator: Sketch 50 (54983) - http://www.bohemiancoding.com/sketch -->
    <title>Fill 1</title>
    <desc>Created with Sketch.</desc>
    <defs></defs>
    <g id="Page-1" stroke="none" stroke-width="1" fill="none" fill-rule="evenodd">
        <g id="Handle-errors" transform="translate(-108.000000, -483.000000)" fill="#FFFFFF">
            <g id="Group-2" transform="translate(16.000000, 193.000000)">
                <g id="Page-1" transform="translate(92.000000, 290.000000)">
                    <path d="M10.1744556,9.70262097 L11.9462298,11.20625 C12.0827218,11.3219758 12.2508669,11.3798387 12.4184073,11.3798387 C12.5849395,11.3798387 12.7516734,11.3227823 12.8877621,11.2082661 L14.741996,9.64556452 L22.2059073,15.9822581 L2.72465726,15.9822581 L10.1744556,9.70262097 Z M2.71377016,1.4578629 L22.1950202,1.4578629 L22.1946169,1.4578629 L14.7452218,7.73608871 L14.1801008,8.21270161 L13.6149798,8.68891129 L12.4200202,9.69616935 L11.3046976,8.74959677 L10.7411895,8.27177419 L10.1780847,7.79294355 L2.71377016,1.4578629 Z M1.45731855,2.30342742 L9.04743952,8.74596774 L1.45731855,15.1435484 L1.45731855,2.30342742 Z M23.461754,15.1358871 L15.8718347,8.69294355 L23.461754,2.29677419 L23.461754,15.1358871 Z M24.918004,0.716733871 C24.9171976,0.672983871 24.9125605,0.62983871 24.904496,0.585685484 C24.9036895,0.584475806 24.9028831,0.582862903 24.9022782,0.580846774 C24.8960282,0.546774194 24.8879637,0.512903226 24.8754637,0.479233871 C24.8730444,0.472379032 24.8690121,0.466129032 24.8661895,0.459072581 C24.8625605,0.450201613 24.8585282,0.442137097 24.854496,0.433266129 C24.8405847,0.401209677 24.8236492,0.370362903 24.8051008,0.340524194 C24.7990524,0.330846774 24.7926008,0.321169355 24.786754,0.312096774 C24.7661895,0.28266129 24.7428024,0.255040323 24.7184073,0.228830645 C24.7139718,0.223991935 24.710746,0.218346774 24.7059073,0.214112903 C24.7042944,0.212298387 24.7022782,0.21108871 24.7010685,0.210080645 C24.6696169,0.179032258 24.6351411,0.151209677 24.599254,0.126209677 C24.5934073,0.122580645 24.5863508,0.119354839 24.580504,0.115524194 C24.5498589,0.095766129 24.5173992,0.0784274194 24.483125,0.0637096774 C24.4726411,0.0590725806 24.4623589,0.0550403226 24.4510685,0.0506048387 C24.4200202,0.0385080645 24.3883669,0.0294354839 24.3557056,0.0215725806 C24.3440121,0.0189516129 24.3333266,0.0159274194 24.3216331,0.0137096774 C24.2801008,0.0060483871 24.2383669,0.00141129032 24.1958266,0.00100806452 C24.1938105,0.00100806452 24.1926008,0 24.1913911,0 L0.728689516,0 C0.727479839,0 0.726673387,0.00100806452 0.725060484,0.00100806452 C0.682318548,0.00100806452 0.639375,0.00564516129 0.597641129,0.0137096774 C0.586350806,0.0159274194 0.575866935,0.01875 0.564979839,0.0211693548 C0.53171371,0.0290322581 0.499052419,0.0385080645 0.467802419,0.0506048387 C0.456915323,0.0550403226 0.446834677,0.0590725806 0.436350806,0.0635080645 C0.402278226,0.0782258065 0.369818548,0.095766129 0.33796371,0.115927419 C0.332318548,0.119556452 0.325866935,0.122580645 0.320625,0.126209677 C0.28453629,0.150806452 0.250262097,0.178427419 0.219415323,0.208669355 C0.217802419,0.21108871 0.215383065,0.212096774 0.213366935,0.214112903 C0.208528226,0.219153226 0.204495968,0.225604839 0.199254032,0.231048387 C0.176068548,0.25625 0.154294355,0.282258065 0.13453629,0.310483871 C0.127076613,0.320766129 0.120423387,0.331653226 0.113366935,0.342540323 C0.0960282258,0.370362903 0.0807056452,0.399193548 0.0669959677,0.429233871 C0.0621572581,0.439717742 0.0569153226,0.450201613 0.0520766129,0.460887097 C0.0502620968,0.466330645 0.0466330645,0.471774194 0.0446169355,0.478225806 C0.0321169355,0.511895161 0.0236491935,0.545967742 0.0171975806,0.580846774 C0.016391129,0.58266129 0.0155846774,0.584475806 0.0155846774,0.586693548 C0.00711693548,0.62983871 0.00147177419,0.672782258 0.00127016129,0.716129032 C0.00127016129,0.720362903 6.0483871e-05,0.725 6.0483871e-05,0.729233871 L6.0483871e-05,16.7106855 C6.0483871e-05,16.7159274 0.00127016129,16.7203629 0.00127016129,16.7247984 C0.00147177419,16.7677419 0.00550403226,16.8110887 0.0139717742,16.8530242 C0.014375,16.8538306 0.0147782258,16.8550403 0.0151814516,16.8554435 C0.0220362903,16.891129 0.0321169355,16.9262097 0.0442137097,16.9614919 C0.0466330645,16.9679435 0.049858871,16.9727823 0.0520766129,16.9788306 C0.0569153226,16.9897177 0.0621572581,17.0004032 0.0669959677,17.0112903 C0.0803024194,17.0407258 0.0960282258,17.0691532 0.11296371,17.0965726 C0.120020161,17.1080645 0.127479839,17.1199597 0.13453629,17.1306452 C0.153891129,17.1572581 0.175262097,17.1826613 0.197237903,17.2066532 C0.20328629,17.2131048 0.207318548,17.2211694 0.213366935,17.2268145 C0.215383065,17.2284274 0.217802419,17.2296371 0.219818548,17.2316532 C0.250262097,17.2620968 0.284133065,17.2891129 0.319415323,17.3133065 C0.326673387,17.3183468 0.334737903,17.3219758 0.341995968,17.3264113 C0.37203629,17.3449597 0.403487903,17.3622984 0.435544355,17.3764113 C0.446028226,17.3810484 0.457318548,17.3858871 0.468205645,17.3899194 C0.500060484,17.4020161 0.532116935,17.4116935 0.564979839,17.4197581 C0.57546371,17.4221774 0.585947581,17.4254032 0.597237903,17.4270161 C0.640584677,17.4346774 0.68453629,17.4405242 0.728689516,17.4405242 L24.1913911,17.4405242 C24.2351411,17.4405242 24.2792944,17.4346774 24.3228427,17.4270161 C24.3333266,17.4254032 24.3432056,17.4221774 24.3536895,17.4197581 C24.3875605,17.4116935 24.4208266,17.4016129 24.4530847,17.3891129 C24.4627621,17.3858871 24.4722379,17.3818548 24.4819153,17.3774194 C24.5173992,17.3622984 24.5514718,17.3441532 24.5841331,17.3231855 C24.5885685,17.3199597 24.5934073,17.3183468 24.598246,17.3147177 C24.6351411,17.2899194 24.6692137,17.2620968 24.7010685,17.2304435 C24.7022782,17.2292339 24.7042944,17.2284274 24.7059073,17.2268145 C24.7103427,17.2219758 24.7133669,17.2171371 24.7178024,17.2122984 C24.7423992,17.1856855 24.7657863,17.1580645 24.7863508,17.1284274 C24.7926008,17.1195565 24.7990524,17.1094758 24.8051008,17.0997984 C24.8236492,17.0703629 24.8405847,17.0391129 24.854496,17.0072581 C24.8585282,16.9985887 24.8625605,16.9903226 24.8661895,16.9816532 C24.8690121,16.9752016 24.8726411,16.9691532 24.8746573,16.9622984 C24.8875605,16.9290323 24.8952218,16.8947581 24.9022782,16.8610887 C24.9022782,16.8586694 24.9036895,16.8560484 24.904496,16.8538306 C24.9125605,16.8102823 24.9171976,16.7673387 24.918004,16.7235887 C24.918004,16.7195565 24.9196169,16.7155242 24.9196169,16.7106855 L24.9196169,0.729233871 C24.9196169,0.725 24.918004,0.721370968 24.918004,0.716733871 Z" id="Fill-1"></path>
                </g>
            </g>
        </g>
    </g>
</svg>

<svg width="25" height="18" xmlns="http://www.w3.org/2000/svg"><path d="M10.174 9.703l1.772 1.503a.73.73 0 0 0 .942.002l1.854-1.562 7.464 6.336H2.725l7.45-6.28zm-7.46-8.245h19.481l-7.45 6.278-.565.477-.565.476-1.195 1.007-1.115-.946-.564-.478-.563-.48-7.464-6.334zm-1.257.845l7.59 6.443-7.59 6.398V2.304zm22.005 12.833l-7.59-6.443 7.59-6.396v12.839zM24.918.716a.807.807 0 0 0-.043-.237c-.002-.007-.006-.013-.009-.02a.718.718 0 0 0-.061-.119l-.018-.028a.773.773 0 0 0-.069-.083l-.012-.015L24.7.21A.776.776 0 0 0 24.6.126l-.018-.01a.66.66 0 0 0-.098-.052L24.451.05a.734.734 0 0 0-.095-.03l-.034-.007A.73.73 0 0 0 24.196 0L24.19 0H.73L.725.001a.674.674 0 0 0-.127.013L.565.02a.742.742 0 0 0-.097.03L.436.064a.71.71 0 0 0-.098.052l-.017.01A.74.74 0 0 0 .219.21L.213.214.2.231a.767.767 0 0 0-.064.08.76.76 0 0 0-.068.119L.052.46.045.479a.612.612 0 0 0-.028.103L.016.587A.688.688 0 0 0 0 .717v16.008c0 .043.005.086.013.128l.001.002c.007.036.017.071.03.106l.007.018.015.032a.754.754 0 0 0 .13.196l.016.02.007.005c.03.03.064.057.1.081l.022.013a.772.772 0 0 0 .223.094l.032.007a.757.757 0 0 0 .132.014H24.19a.763.763 0 0 0 .132-.014l.03-.007a.766.766 0 0 0 .231-.097l.014-.008a.695.695 0 0 0 .103-.085l.005-.003.012-.015a.778.778 0 0 0 .136-.205c.005-.008.009-.017.012-.025.003-.007.007-.013.009-.02a.64.64 0 0 0 .027-.1l.002-.008a.79.79 0 0 0 .014-.13l.002-.013V.729l-.002-.012z" fill="#FFF" fill-rule="evenodd"/></svg>
